!!!!SEGMENT: 043-1-SCHU.krn
!!!COM: Chopin, Fryderyk
!!!OTL: Tarantelle
!!!OPS: Op. 43.
!!!PTL: Tarantelle pour le Pianoforte
!!!PPR: Schuberth
!!!PPP: Hamburg
!!!AGN: Tarantelle
!!!NIFC-rismID: 1001074073
!!!NIFC-shelfmark: PL-Wmfc MC/469
!!!OMD: Presto.
!!!system-decoration: {(s1,s2)}
**kern	**kern	**dynam
*part1	*part1	*part1
*staff2	*staff1	*
*	*I"PIANO.	*
*clefF4	*clefG2	*
*k[b-e-a-d-]	*k[b-e-a-d-]	*
*A-:	*A-:	*
*M6/8	*M6/8	*
!	!LO:TX:t=P:"Presto." nie wyświetla się:problem	!
4r	(>4e-'<	.
8r	8e-	.
=1	=1	=1
2.rF	4ee-	.
.	8ee-	.
.	4e-	.
.	8e-	.
=2	=2	=2
2.rF	4ee-	.
.	8ee-	.
.	4e-	.
.	8e-	.
=3	=3	=3
2.rF	4dn	.
.	8d	.
.	4d-X	.
.	8d-	.
=4||	=4||	=4||
*	*^	*
!	!LO:N:vis=2	!	!
8AA-L	8cL	2c	.
8A-	8d-	.	.
8E-J	8dnJ	.	.
8AA-L	8e-L	.	.
8A-	8g	4ryy	.
8E-J	8fJ	.	.
*	*v	*v	*
=5	=5	=5
8GGL	4e- 4B-)	.
8G	.	.
8E-J	(8e- 8B-	.
8FFL\	4a- 4d-)	.
8F	.	.
8D-J	(<8a- 8d-	.
!!LO:LB:g=original
=6	=6	=6
8EEnL\	4G)	.
8En	.	.
8CJ	(<8G	.
8EEL\	4gn 4c)	.
8E	.	.
8CJ	8g	.
=7	=7	=7
*	*^	*
8EE-XL\	4G-X	4.ryy	.
8E-X	.	.	.
8C-XJ	(>8G-	.	.
8EE-L\	4g-i)	4.c	.
!!!SIC@EN: 4.c is missing a flat accidental
8E-	.	.	.
8C-J	(>8g-	.	.
=8	=8	=8	=8
8EE-L\	(>[>2.f^>)	8F<L	.
8E-	.	8G<	.
8FFJ	.	8An<J	.
8DD-L\	.	8B-L	.
8D-	.	8c	.
8FFJ	.	8d-J	.
*	*v	*v	*
=9	=9	=9
8CCL\	4f] 4e-	.
8C	.	.
8FFJ	&(<8f 8e-	.
8BBB-L\	4dd- 4b-&)/	.
8BB-	.	.
8FFJ	&(<8dd- 8b-/	.
=10	=10	=10
8EE-L\	4e- 4d-&)	.
8G	.	.
8E-J	&(<8e- 8d-	.
8EE-L\	4cc 4a-&)/	.
8A-	.	.
8E-J	8cc/	.
=11	=11	=11
*	*^	*
8EE-L\	4b-	4.d-	.
8G	.	.	.
8E-J	8b-	.	.
8AA-L\	4a-	4.c	.
8A-	.	.	.
8E-J	8a-	.	.
!!LO:LB:g=original
=12	=12	=12	=12
!	!LO:N:vis=2	!	!
8AA-L\	8cL	2c	.
8A-	8d-	.	.
8E-J	8dnJ	.	.
8AA-L\	8e-L	.	.
8A-	8g	4ryy	.
8E-J	8fJ	.	.
*	*v	*v	*
=13	=13	=13
8GGL\	4e- 4B-)	.
8G	.	.
8E-J	(<8e- 8B-	.
8FFL\	4a- 4d-)	.
8F	.	.
8D-J	(<8a- 8d-	.
=14	=14	=14
8EEnL\	4G)	.
8En	.	.
8CJ	(<8G	.
8EEL\	4gn 4c)	.
8E	.	.
8CJ	(<8g	.
=15	=15	=15
*	*^	*
8EE-XL\	4G-X)	4.ryy	.
8E-X	.	.	.
8C-XJ	8G-	.	.
8EE-L\	4g-X	4.c	.
!!!SIC@EN: 4.c is missing a flat accidental
8E-	.	.	.
8C-J	(>8g-	.	.
=16	=16	=16	=16
8EE-L	2.f	8F<L	.
8E-	.	8G<	.
8FFJ	.	8An<J	.
8FFL\	.	8B-L	.
!!!SIC@EN: there should be 8DD-L instead of 8FFL. In the source there is a correction made with pencil
8D-	.	8c	.
8FFJ	.	&(>8d-J	.
*	*v	*v	*
=17	=17	=17
8CCL	4f 4e-&)	.
8C	.	.
8FFJ	8f 8e-	.
8BBB-L	4dd- 4b-	.
8BB-	.	.
8FFJ	8dd- 8b-	.
!!LO:LB:g=original
=18	=18	=18
8EE-L\	4e- 4d-	.
8G	.	.
8E-J	8e- 8d-	.
8EE-L\	4cc 4a-/	.
8A-	.	.
8E-J	8cc	.
=19	=19	=19
*	*^	*
8EE-L\	4b-	4.d-	.
8G	.	.	.
8E-J	8b-	.	.
8AA-L\	4a-	4.c	.
8A-	.	.	.
8E-J	8a-	.	.
*	*v	*v	*
=20	=20	=20
4.E- 4.EE-\	4.ee-^> 4.e-)\	f
8f-X>L	(>8dd-L	.
8c-X>	8a-	.
8d->J	8b-J	.
=21	=21	=21
8e->L	8cc-XL	.
8B->	8g-X	.
8c-X>J	8a-J	.
8d->L	8b-L	.
8A->	8f-X	.
8B->J	8g-J	.
=22	=22	=22
8c-XL	8a-L	.
8G-X	8e-	.
8A-J	8f-XJ	.
8B-L	8gL	.
!!!SIC@EN: 8g is missing a flat accidental
8F-X	8d-	.
8G-J	8e-J	.
!!LO:LB:g=original
=23	=23	=23
*	*^	*
8A-L	8f-XL	8ryy	.
8E-	8c-X	4c-X	.
8F-XJ	8d-J	.	.
4.G-X	[>4.e-)	[<4.c-	.
=24	=24	=24	=24
8C-XL	(>4.e-]	4.c-X]	.
8E-	.	.	.
8F-XJ	.	.	.
4G-X	8d-L	4.B-	.
.	8e-	.	.
8G-	8d-J	.	.
=25	=25	=25	=25
*^	*	*	*
4.ryy	8AA-L\	8c-XL	4.A-	.
.	8C-X	8d-	.	.
.	8D-J	8c-J	.	.
!LO:TX:b:t=P:note position:problem	!	!	!	!
4.G	4E-	8B-<L	4.ryy	.
.	.	8c-<X	.	.
.	8E-	8B-<J	.	.
*	*	*v	*v	*
=26	=26	=26	=26
4.F-X/	8FF-XL	8A-<L	.
.	8AA-	8B-<	.
.	8BB-J	8A-<J	.
!LO:TX:b:t=P:note position:problem	!	!	!
4.E-	4C-X	8G-X<L	.
.	.	8A-<	.
.	8C-	8G-<J	.
=27	=27	=27	=27
4.ryy	8DD-L	8F-X<L	.
.	8FF-X	8G-X<	.
.	8GG-iJ	8F-<J	.
4.C-X<\	4.AA-	4.E-<)	.
*v	*v	*	*
!!LO:PB:g=original
=28	=28	=28
!	!LO:TX:a:t=P:w źródle nad nutami znajduje się zakończenie łuku:problem	!
4.EE- 4.EEE-	4.eee- 4.ee-	ff
*clefG2	*	*
8ff-XL	(>8ddd-L	.
8cc-X	8aa-	.
8dd-J	8bb-J	.
=29	=29	=29
8ee-L	8ccc-XL	.
8b-	8gg-X	.
8cc-XJ	8aa-J	.
8dd-L	8bb-L	.
8a-	8ff-X	.
8b-J	8gg-J	.
=30	=30	=30
8cc-XL\	8aa-L	.
8g-X	8ee-	.
8a-J	8ff-XJ	.
8b-L	8gg-XL	.
8f-X	8dd-	.
8g-XJ	8ee-J	.
=31	=31	=31
8a-L	8ff-XL	.
8e-	8cc-X	.
8f-XJ	8dd-J	.
4.g-X	[>4.ee- 4.cc-)	.
*clefF4	*	*
=32	=32	=32
*	*^	*
4r	4.ee-]	4.b-	.
8D-	.	.	.
4f-X 4B--	(>8b--L	4b--	.
.	8ee-	.	.
8D-	8dd-J	8ryy	.
*	*v	*v	*
!!LO:LB:g=original
=33	=33	=33
4f-X 4B--	8b--L/	.
.	8cc	.
!!!SIC@EN: 8cc is missing a flat accidental
8D-	8b--J	.
4f- 4B-X	8a-L/	.
.	8b-X	.
8D-	8a-J	.
=34	=34	=34
4e- 4B-	8gL	.
.	8a-	.
8E-	8gJ	.
4e- 4G	8b-L/	.
.	8cc	.
8E-	8b-J	.
=35	=35	=35
*	*^	*
4.e- 4.A-	4.a-)	4.c	.
4.A- 4.AA-	4r	4.ryy	.
.	8r	.	.
*	*v	*v	*
=36	=36	=36
4.E- 4.EE-	4.ee- 4.e-\	f
8f-X>L	(>8dd-L	.
8c-X>	8a-	.
8d->J	8b-J	.
=37	=37	=37
8e->L	8cc-XL	.
8B->	8g-X	.
8c-X>J	8a-J	.
8d->L	8b-L	.
8A->	8f-X	.
8B->J	8g-J	.
=38	=38	=38
8c-XL	8a-L	.
8G-X	8e-	.
8A-J	8f-XJ	.
8B-L	8gL	.
!!!SIC@EN: 8g is missing a flat accidental
8F-X	8d-	.
8G-J	8e-J	.
!!LO:LB:g=original
=39	=39	=39
*	*^	*
8A-L	8f-XL	8ryy	.
8E-	8c-X	4c-X	.
8F-XJ	8d-J	.	.
4.G-X	[>4.e-	[<4.c-	.
=40	=40	=40	=40
8C-XL	4.e-]	4.c-X]	.
8E-	.	.	.
8F-XJ	.	.	.
4G-X	8d-L	4.B-	.
.	8e-	.	.
8G-	8d-J	.	.
=41	=41	=41	=41
*^	*	*	*
4.ryy	8AA-L\	8c-XL	4.A-	.
.	8C-X	8d-	.	.
.	8D-J	8c-J	.	.
!LO:TX:b:t=P:note position:problem	!	!	!	!
4.G	4E-	8B-<L	4.ryy	.
.	.	8c-<	.	.
.	8E-	8B-<J	.	.
*	*	*v	*v	*
=42	=42	=42	=42
4.F-X\	8FF-X\L	8A-<L	.
.	8AA-\	8B-<	.
.	8BB-\J	8A-<J	.
!LO:TX:b:t=P:note position:problem	!	!	!
4.E-\	4AA-X\	8G-X<L	.
!!!SIC@EN: there should be 4C- instead of 4AA-
.	.	8A-<	.
.	8C\	8G-<J	.
!!!SIC@EN: there should be 8C- instead of 8C
=43	=43	=43	=43
4.D-\	8DD-L	8F-X<L	.
.	8FF-X	8G-X<	.
.	8GGJ	8F-<J	.
!!!SIC@EN: 8GGJ is missing a flat accidental
4.C\	4.AA-	4.E-X</)	.
*v	*v	*	*
!!LO:LB:g=original
=44	=44	=44
4.EE- 4.EEE-	(>4.eee- 4.ee-	ff
*clefG2	*	*
8ff-XL	8ddd-L	.
8cc-X	8aa-	.
8dd-J	8bb-J	.
=45	=45	=45
8ee-L	8ccc-XL	.
8b-	8gg-X	.
8cc-XJ	8aa-J	.
8dd-L	8bb-L	.
8a-	8ff-X	.
8b-J	8gg-J	.
=46	=46	=46
8cc-XL\	8aa-L	.
8g-X	8ee-	.
8a-J	8ff-XJ	.
8b-L	8gg-XL	.
8f-X	8dd-	.
8g-XJ	8ee-J	.
=47	=47	=47
8a-L	8ff-XL	.
8e-	8cc-X	.
8f-XJ	8dd-J	.
4.g-X	[4.ee- 4.cc-)	.
*clefF4	*	*
=48	=48	=48
*	*^	*
4r	(>4.ee-]	4.b-	.
8D-	.	.	.
4f 4B--	8b--L	4b--	p
!!!SIC@EN:4f is missing a flat accidental
.	8ee-	.	.
8D-	8dd-J	8ryy	.
*	*v	*v	*
=49	=49	=49
4f 4B--	8b--L/	.
!!!SIC@EN: 4f is missing a flat accidental. There should be 4f- in the next part of the measure
.	8cc	.
!!!SIC@EN: 8cc is missing a flat accidental
8D-	8b--J	.
4f 4B-X	8a-L	.
.	8b-X	.
8D-	8a-J	.
!!LO:LB:g=original
=50	=50	=50
4e- 4B-	8gL	.
.	8a-	.
8E-	8gJ	.
4e- 4G	8b-L/	.
.	8cc	.
8E-	8b-J	.
=51	=51	=51
4.e- 4.A-	4.a- 4.c)	.
4.AA-/	4r	.
.	(>8an	.
=52	=52	=52
8D-L	4b-	.
8f-X	.	.
8A-J	8b-	.
8E-L	4b-	.
8e-	.	.
8GJ	8cc	.
=53	=53	=53
8FL	4a-	.
8c	.	.
8A-J	8a-	.
8CL	8a-L	.
.	8qb-/	.
8e-	8a-	.
8A-J	8gJ	.
=54	=54	=54
8D-L	8a-L/	.
8f-X	8b-	.
8A-J	8ccJ	.
8F-XL	8dd-L	.
8d-	8ee-	.
8A-J	8ff-XJ	.
=55	=55	=55
8AA-L	4a-	.
8c	.	.
8E-J	8a-	.
8CL	8a-	.
8e-	8r	.
8A-J	8an	.
!!LO:PB:g=original
=56	=56	=56
8D-L	4b-	.
8f-X	.	.
8A-J	8b-	.
8E-L	4b-	.
8e-	.	.
8GJ	8cc	.
=57	=57	=57
8FL	4a-	.
8c	.	.
8A-J	8a-	.
8CL	8a-L	.
.	8qb-/	.
8e-	8a-	.
8A-J	8gJ	.
=58	=58	=58
8D-L	8a-L	.
8f-X	8b-	.
8A-J	8ccJ	.
8F-XL	8dd-L	.
8d-	8ee-	.
8A-J	8ff-XJ	.
=59	=59	=59
*	*^	*
8AA-L	[>2.aa-)	N(<4.a-	.
8c	.	.	.
8E-J	.	.	.
8CL	.	4a-	.
8e-	.	.	.
8A-J	.	8an	.
=60	=60	=60	=60
8D-L	2.aa-]	4b-	.
8f-X	.	.	.
8A-J	.	8b-	.
8E-L	.	4b-	.
8e-	.	.	.
8GJ	.	8cc	.
*	*v	*v	*
=61	=61	=61
8FL	4a-	.
8c	.	.
8A-J	8a-	.
8CL	8a-L	.
.	8qb-	.
8e-	8a-	.
8A-J	8gJ	.
!!LO:LB:g=original
=62	=62	=62
8D-L	8a-L	.
8f-X	8b-	.
8A-J	8ccJ	.
8F-XL	8dd-L	.
8d-	8ee-	.
8A-J	8ff-XJ	.
=63	=63	=63
8AA-L	4a-	.
8c	.	.
8E-J	8a-	.
!	!LO:N:vis=4	!
8CL	8a-N)	.
8e-	8r	.
8A-J	(>8an	.
=64	=64	=64
8D-L	4b-	.
8f-X	.	.
8A-J	8b-	.
8E-L	4b-	.
8d-	.	.
8GJ	8cc	.
=65	=65	=65
8FL	4a-	.
8c	.	.
8A-J	8a-	.
8CL	8a-L	.
.	8qb-	.
8e-	8a-	.
8A-J	8gJ	.
=66	=66	=66
8D-XL	8a-L	.
8f-X	8b-	.
8A-J	8ccJ	.
8F-XL	8dd-L	.
8d-	8ee-	.
8A-J	8ff-XJ	.
=67	=67	=67
*	*^	*
8AA-L	2.aa-)	[>4.a-	.
8c	.	.	.
8E-J	.	.	.
8CL	.	4a-]	.
8e-	.	.	.
8A-J	.	8cc	.
*	*v	*v	*
!!LO:LB:g=original
=68	=68	=68
4en: 4B-: 4G: 4C:	(>4ccc	fz
8r	8cc)	.
*clefG2	*	*
!	!	!LO:DY:rj
(>8ccL	(>4ccc	ff
8bn	.	.
8b-XJ	8cc)	.
=69	=69	=69
8anL	(>4ddd- 4aa- 4ff	.
8a-X	.	.
8gJ	8cc)	.
8g-XL	(>4ccc	.
8f	.	.
8f-J	8cc)	.
=70	=70	=70
8e-XL	(>4ddd- 4bb- 4gg 4een	.
8dn	.	.
8d-XJ	8cc)	.
*clefF4	*	*
8cL	(>4ccc	.
8Bn	.	.
8B-XJ	8cc)	.
=71	=71	=71
8AnL	(>4ddd- 4aa- 4ff	.
8A-X	.	.
8GJ	8cc)	.
8G-XL	4ccc	.
8F	.	.
8F-XJ	8cc	.
=72	=72	=72
4E- 4EE-	4eee- 4ddd- 4gg 4ee-	.
8E-)	8r	.
4d- 4G	(>8e-L	.
.	8en	.
8E-	8fJ	.
!!LO:LB:g=original
=73	=73	=73
4fn 4c 4A-	8f#XL	.
.	8g	.
8E-	8a-J	.
4e-	8anL	.
.	8b-	.
8E-	8bnJ	.
=74	=74	=74
4f 4d- 4G	8ccL	.
.	8dd-	.
8E-	8ddnJ	.
4e-	8ee-L	.
.	8een	.
8E-	8ffJ	.
=75	=75	=75
4fn 4c 4A-	8ff#XL	.
.	8gg	.
8E-	8aa-J	.
4e-	8aanL	.
.	8bb-	.
8E-	8bbnJ	.
=76	=76	=76
4en: 4B-: 4G: 4C:	4ccc	fz
8r	8cc)	.
*clefG2	*	*
(>8ccL	(>4ccc	.
8bn	.	.
8b-XJ	8cc)	.
=77	=77	=77
8anL	(>4ddd- 4aa- 4ff	.
8a-X	.	.
8gJ	8cc)	.
8g-XL	(>4ccc	.
8f	.	.
8enJ	8cc)	.
*clefF4	*	*
!!LO:LB:g=original
=78	=78	=78
8e-XL	(>4ddd- 4bb- 4gg 4een	.
8dn	.	.
8d-XJ	8cc)	.
8cL	(>4ccc	.
8Bn	.	.
8B-XJ	8cc)	.
=79	=79	=79
8AnL	(>4ddd- 4aa- 4ff	.
8A-X	.	.
8GJ	8cc)	.
8G-XL	(>4ccc	.
8F	.	.
8F-XJ	8cc)	.
=80	=80	=80
4E- 4EE-\	4eee- 4ddd- 4gg 4ee-	.
8E-)	8r	.
4d- 4G	(>8e-L	.
.	8en	.
8E-	8fJ	.
=81	=81	=81
(>4f 4c 4A-	8f#XL	.
.	8g	.
8E-)	8a-J	.
(>4e-	8anL	.
.	8b-	.
8E-)	8bnJ	.
=82	=82	=82
4f 4d- 4G	8ccL	.
.	8dd-	.
8E-	8ddnJ	.
4e-	8ee-L	.
.	8ff	.
8r	8ee-J	.
=83	=83	=83
2.rF	8ffL	.
.	8ee-	.
.	8ffJ	.
.	8ee-L\	.
.	8f	.
.	8e-J	.
!!LO:PB:g=original
=84	=84	=84
*	*^	*
!	!LO:TX:a:t=P:diminuendolike accent:problem	!	!
8AA-L	4.g-X^>	4.c	.
8B-	.	.	.
8A-J	.	.	.
8AA-L	8g-L	4.c	.
8A-	8f	.	.
8G-XJ	8e-J	.	.
=85	=85	=85	=85
8D-L	4f	4.d-	.
8A-	.	.	.
8FJ	8f	.	.
8AA-L	8fL	4.c	.
8c	8g	.	.
8FJ	8a-J	.	.
=86	=86	=86	=86
8AA-L	4g	4.f	.
!!!SIC@EN: there should be 8BB- instead of 8AA-
8d-	.	.	.
8FJ	8g	.	.
8CL	8gL	4.en	.
8c	8a-	.	.
8GJ	8b-J	.	.
=87	=87	=87	=87
8FL	4a-	4.f	.
8c	.	.	.
8A-J	8a-	.	.
8C-XL	4a-	4.e-	.
8c-X	.	.	.
8FJ	8a-	.	.
=88	=88	=88	=88
8BB-L	4a-	4.dn	.
8B-	.	.	.
8FJ	8a-	.	.
8C-XL	4a-	4.e-	.
8c-X	.	.	.
8FJ	8a-	.	.
!!LO:LB:g=original
=89	=89	=89	=89
8BB-L	4a-	4.dn	.
8B-	.	.	.
8FJ	8a-	.	.
8C-XL	4a-	4.e-	.
8c-X	.	.	.
8FJ	8a-	.	.
=90	=90	=90	=90
8C-XL	4a-	4.dn	.
8c-X	.	.	.
8FJ	8a-	.	.
8BBnL	4g#X	4.d	.
8Bn	.	.	.
8EnJ	8g#	.	.
=91	=91	=91	=91
8AAnL	4an	4.dn	.
8An	.	.	.
8EnJ	8a	.	.
8AAL	8gnL	&(<4.c#X	.
8A	8a	.	.
8EJ	8gJ	.	.
=92	=92	=92	=92
8BB--L	[>4.g-X	4.d-&)	.
8B--	.	.	.
8E-J	.	.	.
8AA-L	8g-L]	4.c	.
8A-	8f	.	.
8G-XJ	8e-J	.	.
=93	=93	=93	=93
8D-L	4f	4.d-	.
8A-	.	.	.
8FJ	8f	.	.
8AA-L	8fL	4.c	.
8c	8g	.	.
8FJ	8a-J	.	.
!!LO:LB:g=original
=94	=94	=94	=94
8BB-L	4gn	4.f	.
8d-	.	.	.
8FJ	8g	.	.
8CL	8gL	4.en	.
8c	8a-	.	.
8GJ	8b-J	.	.
=95	=95	=95	=95
8FL	4a-	4.f	.
8c	.	.	.
8A-J	8a-	.	.
8E-L	4an	4.g-X	.
8c	.	.	.
8G-XJ	8a	.	.
=96	=96	=96	=96
8DnL	4b-	4.f	.
8B-	.	.	.
8FJ	8b-	.	.
8D-XL	4bn	4.a- 4.f	.
8Bn	.	.	.
8FJ	8b	.	.
=97	=97	=97	=97
8CL	4cc	4.a- 4.f	.
8c	.	.	.
8FJ	8cc	.	.
8BBnL	4dd-	4.a- 4.f	.
8d-	.	.	.
8FJ	8dd-	.	.
=98	=98	=98	=98
8CnL	4cc	4.a-	.
8f	.	.	.
8cJ	8aa-	.	.
8CL	4aa-	4.cc 4.b-	.
8en	.	.	.
8cJ	8gg	.	.
!!LO:LB:g=original
=99	=99	=99	=99
8FL	4gg	4.cc 4.b-	.
8en	.	.	.
8cJ	8ff	.	.
8FL	4ff	4cc 4a-	.
8f	.	.	.
8cJ	8f)	8ryy	.
=100	=100	=100	=100
8AA-L	(>[>4.g-X	4.c	.
8B-	.	.	.
8A-J	.	.	.
8AA-L	8g-L]	4.c	.
8A-	8f	.	.
8G-XJ	8e-J	.	.
=101	=101	=101	=101
8D-L	4f	4.d-	.
8A-	.	.	.
8FJ	8f	.	.
8AA-L	8fL	4.c	.
8c	8g	.	.
8FJ	8a-J	.	.
=102	=102	=102	=102
8BB-L	4g	4.f	.
8d-	.	.	.
8FJ	8g	.	.
8CL	8gL	4.en	.
8c	8a-	.	.
8GJ	8b-J	.	.
=103	=103	=103	=103
8FL	4a-	4.f	.
8c	.	.	.
8A-J	8a-	.	.
8C-XL	4a-	4.e-	.
8c-X	.	.	.
8FJ	8a-	.	.
!!LO:LB:g=original
=104	=104	=104	=104
8BB-L	4a-	4.dn	.
8B-	.	.	.
8FJ	8a-	.	.
8C-XL	4a-	4.e-	.
8c-X	.	.	.
8FJ	8a-	.	.
=105	=105	=105	=105
8BB-L	4a-	4.dn	.
8B-	.	.	.
8FJ	8a-	.	.
8C-XL	4a-	4.e-	.
8c-X	.	.	.
8FJ	8a-	.	.
=106	=106	=106	=106
8C-XL	4a-	4.dn	.
8c-X	.	.	.
8FJ	8a-	.	.
8BBnL	4g#X	4.d	.
8Bn	.	.	.
8EnJ	8g#	.	.
=107	=107	=107	=107
8AAnL	4an	4.dn	.
8An	.	.	.
8EnJ	8a	.	.
8AAL	8gnL	(<4.c#X	.
8A	8a	.	.
8EJ	8gJ	.	.
!!LO:PB:g=original
=108	=108	=108	=108
8BB--L	[>4.g-X	4.d-)	.
8B--	.	.	.
8E-J	.	.	.
8AA-L	8g-L]	4.c	.
8A-	8f	.	.
8G-XJ	8e-J	.	.
=109	=109	=109	=109
8D-L	4f	4.d-	.
8A-	.	.	.
8FJ	8f	.	.
8AA-L	8fL	4.c	.
8c	8g	.	.
8FJ	8a-J	.	.
=110	=110	=110	=110
8BB-L	4gn	4.f	.
8d-	.	.	.
8FJ	8g	.	.
8CL	8gL	4.en	.
8c	8a-	.	.
8GJ	8b-J	.	.
=111	=111	=111	=111
8FL	4a-	4.f	.
8c	.	.	.
8A-J	8a-	.	.
8E-L	4an	4.g-X	.
8c	.	.	.
8G-XJ	8a	.	.
=112	=112	=112	=112
8DnL	4b-	4.f	.
8B-	.	.	.
8FJ	8b-	.	.
8D-XL	4bn	4.a- 4.f	.
8Bn	.	.	.
8FJ	8b	.	.
!!LO:LB:g=original
=113	=113	=113	=113
8CL	4cc	4.a- 4.f	.
8c	.	.	.
8FJ	8cc	.	.
8BBnL	4dd-	4.a- 4.f	.
8d-	.	.	.
8FJ	8dd-	.	.
=114	=114	=114	=114
8CnL	4cc	4.a-	.
8f	.	.	.
8cJ	8aa-	.	.
8CL	4aa-	4.cc 4.b-	.
8en	.	.	.
8cJ	8gg	.	.
=115	=115	=115	=115
8FL	4gg	4.cc 4.b-	.
8en	.	.	.
8cJ	8ff	.	.
8FL	4ff	4cc 4a-	.
8f	.	.	.
8cJ	8f	8ryy	.
=116	=116	=116	=116
*^	*	*	*
4C 4CC	4.ryy	4cc 4c)	4.ryy	.
8r	.	8r	.	.
*clefG2	*	*	*	*
4.f	8fL	(>8ddd-L	4.aa-	.
.	8dd-	8eee-	.	.
.	8a-J	8ddd-J	.	.
=117	=117	=117	=117	=117
4.e-	8e-L	4.ccc	8cccL	.
.	8cc	.	8ee-	.
.	8gJ	.	8ggJ	.
4.d-	8d-L	8bb-L	4.ff	.
.	8b-	8ccc	.	.
.	8fJ	8bb-J	.	.
!!LO:LB:g=original
=118	=118	=118	=118	=118
4.c	8cL	4.aa-	8aa-L	.
.	8a-	.	8cc	.
.	8e-J	.	8ee-J	.
4.B-	8B-L	8ggL	4.dd-	.
.	8g	8aa-	.	.
.	8d-J	8ggJ	.	.
*clefF4	*	*	*	*
=119	=119	=119	=119	=119
4.A-	8A-L	4ff	8ffL	.
.	8f	.	8a-	.
.	8cJ	8ryy	8ccJ	.
4.G	8GL	8ee-L	4.b-	.
.	8e-	8ff	.	.
.	8B-J	8ee-J	.	.
=120	=120	=120	=120	=120
4.F	8FL	4.dd-	8dd-L	.
.	8d-	.	8f	.
.	8A-J	.	8a-J	.
4.E-	8E-L	8ccL	4.g	.
.	8c	8dd-	.	.
.	8GJ	8ccJ	.	.
=121	=121	=121	=121	=121
4.D-	8D-L	4.b-	8b-L	.
.	8B-	.	8d-	.
.	8FJ	.	8fJ	.
4.C	8CL	8a-L	4.e-	.
.	8A-	8b-	.	.
.	8E-J	8a-J	.	.
!!LO:LB:g=original
=122	=122	=122	=122	=122
4.BB-	8BB-L	4g	4f 4d-X	.
.	8G	.	.	.
.	8FJ	8g	8ryy	.
.	.	16qqg/LL	.	.
.	.	16qqb-/JJ	.	.
4.ryy	8BBnL	4a-	4f 4dn	.
.	8dn	.	.	.
.	8GJ	8g	8ryy	.
*v	*v	*	*	*
*	*v	*v	*
=123	=123	=123
8CL	4.g 4.en	.
8c	.	.
8GJ	.	.
8EnL	4.cc 4.c)	.
8C	.	.
8GGJ	.	.
=124	=124	=124
*^	*^	*
4CC	4.ryy	4ccc 4cc	4.ryy	.
8r	.	8r	.	.
*clefG2	*	*	*	*
*	*	*8va	*	*
4.ff	8ffL	(>8dddd-L	4.aaa-	.
.	8ddd-	8eeee-	.	.
.	8aa-J	8dddd-J	.	.
=125	=125	=125	=125	=125
4.ee-	8ee-L	8ccccL	4.cccc	.
.	8ccc	8eee-	.	.
.	8ggJ	8gggJ	.	.
4.dd-	8dd-L	8bbb-L	4.fff	.
.	8bb-	8cccc	.	.
.	8ffJ	8bbb-J	.	.
=126	=126	=126	=126	=126
4.cc	8ccL	4.aaa-	8aaa-L	.
.	8aa-	.	8ccc	.
.	8ee-J	.	8eee-J	.
4b-	8b-L	8gggL	4.ddd-	.
.	8gg	8aaa-	.	.
8ryy	8dd-J	8gggJ	.	.
!!LO:LB:g=original
=127	=127	=127	=127	=127
4.a-	8a-L	4.fff	8fffL	.
.	8ff	.	8aa-	.
.	8ccJ	.	8cccJ	.
4.g	8gL	8eee-L	4.bb-	.
.	8ee-	8fff	.	.
.	8b-J	8eee-J	.	.
=128	=128	=128	=128	=128
4.f	8fL	4.ddd-	8ddd-L	.
.	8dd-	.	8ff	.
.	8a-J	.	8aa-J	.
4.e-	8e-L	8cccL	4.gg	.
.	8cc	8ddd-	.	.
.	8gJ	8cccJ	.	.
=129	=129	=129	=129	=129
4.d-	8d-L	4.bb-	8bb-L	.
.	8b-	.	8dd-	.
.	8fJ	.	8ffJ	.
4.c	8cL	8aa-L	4.ee-	.
.	8a-	8bb-	.	.
.	8e-J	8aa-J	.	.
=130	=130	=130	=130	=130
4.B-	8B-L	4gg	4.ff 4.dd-X	.
.	8g	.	.	.
.	8d-XJ	8gg	.	.
.	.	16qqgg/LL	.	.
.	.	16qqbb-/JJ	.	.
4.Bn	8BnL	4aa-	4.ff 4.ddn	.
.	8ddn	.	.	.
.	[>8gJ	8gg	.	.
*	*	*X8va	*	*
*v	*v	*	*	*
*	*v	*v	*
=131	=131	=131
!	!LO:TX:a:Bi:t=loco.	!
4g] 4c	4gg 4een)	.
8r	(>8ccc	.
4r	4cc)	.
8r	(>8cc	.
*clefF4	*	*
!!LO:PB:g=original
=132	=132	=132
*	*^	*
8AA-L	[>4.g-X)	2.c\	.
8B-	.	.	.
8A-J	.	.	.
8AA-L	(>8g-L]	.	.
8A-	8f	.	.
8G-XJ	8e-J	.	.
=133	=133	=133	=133
8D-L	4f	4.d-	.
8A-	.	.	.
8FJ	8f	.	.
8AA-L	8fL	4.c	.
8c	8g	.	.
8FJ	8a-J	.	.
=134	=134	=134	=134
8BB-L	4g	4.f	.
8d-	.	.	.
8FJ	8g	.	.
8CL	8gL	4.en	.
8c	8a-	.	.
8GJ	8b-J	.	.
=135	=135	=135	=135
8FL	4a-	4.f	.
8c	.	.	.
8A-J	8a-	.	.
8C-XL	4a-	4.e-	.
8c-X	.	.	.
8FJ	8a-	.	.
=136	=136	=136	=136
8BB-L	4a-	4.dn	.
8B-	.	.	.
8FJ	8a-	.	.
8C-XL	4a-	4.e-	.
8c-X	.	.	.
8FJ	8a-	.	.
!!LO:LB:g=original
=137	=137	=137	=137
8BB-L	4a-	4.dn	.
8B-	.	.	.
8FJ	8a-	.	.
8C-XL	4a-	4.e-	.
8c-X	.	.	.
8FJ	8a-	.	.
=138	=138	=138	=138
8C-XL	4a-	4.dn	.
8c-X	.	.	.
8FJ	8a-	.	.
8BBnL	4g#X	4.d	.
8Bn	.	.	.
8EnJ	8g#	.	.
=139	=139	=139	=139
8AAnL	4an	4.dn	.
8An	.	.	.
8EnJ	8a	.	.
8AAL	8gnL	[<4.c#X	.
8A	8a	.	.
8EJ	8gJ	.	.
=140	=140	=140	=140
8BB--L	[>4.g-)	4.d-]	.
8B--	.	.	.
8E-J	.	.	.
8AA-L	(>8g-L]	4.c	.
8A-	8f	.	.
8G-XJ	8e-J	.	.
!!LO:LB:g=original
=141	=141	=141	=141
8D-L	4f	4.d-	.
8A-	.	.	.
8FJ	8f	.	.
8AA-L	8fL	4.c	.
8c	8g	.	.
8FJ	8a-J	.	.
=142	=142	=142	=142
8BB-L	4gn	4.f	.
8d-	.	.	.
8FJ	8g	.	.
8CL	8gL	4.en	.
8c	8a-	.	.
8GJ	8b-J	.	.
=143	=143	=143	=143
8FL	4a-	4.f	.
8c	.	.	.
8A-J	8a-	.	.
8E-L	4an	4.g-X	.
8c	.	.	.
8G-XJ	8a	.	.
=144	=144	=144	=144
8DnL	4b-	4.f	.
8B-	.	.	.
8FJ	8b-	.	.
!	!	!LO:TX:t=P:w źródle 4a- zamiast 4.a-:problem	!
8D-XL	4bn	4.a- 4.f	.
8Bn	.	.	.
8FJ	8b	.	.
=145	=145	=145	=145
8CL	4cc	4.a- 4.f	.
8c	.	.	.
8FJ	8cc	.	.
8BBnL	4dd-	4.a- 4.f	.
8d-	.	.	.
8FJ	8dd-	.	.
!!LO:LB:g=original
=146	=146	=146	=146
8CnL	4cc	4.a-	.
8f	.	.	.
8cJ	8aa-	.	.
8CL	4aa-	4.cc 4.b-	.
8en	.	.	.
8cJ	8gg	.	.
=147	=147	=147	=147
8FL	4gg	4.cc 4.b-	.
8en	.	.	.
8cJ	8ff	.	.
8FL	4ff	4cc 4a-	.
8f	.	.	.
8cJ	8f	8ryy	.
=148	=148	=148	=148
4A- 4E- 4AA-	4cc^< 4a- 4e- 4c)	4.ryy	fz
8r	8r	.	.
4D- 4AA- 4DD-	(>8b-L	4.f-X^< 4.d-	fz
.	8cc	.	.
8ryy	8b-J	.	.
=149	=149	=149	=149
4AA- 4AAA-	4a-)	4.e-^< 4.c	fz
8r	8a-	.	.
8D-L	(>4cc	4.f	.
8A-	.	.	.
8D-J	8cc	.	.
=150	=150	=150	=150
8CL	4a-	4.e-	.
8A-	.	.	.
8CJ	8a-	.	.
8D-L	4cc	4.f	.
8A-	.	.	.
8DnJ	8cc	.	.
!!LO:LB:g=original
=151	=151	=151	=151
4G 4E-	8b-L	4d-	.
.	8cc	.	.
8r	8b-J	2ryy	.
4.E- 4.EE-	8gL	.	.
.	8f	.	.
.	8e-J)	.	.
=152	=152	=152	=152
4A- 4E- 4AA-	4cc^< 4a- 4e- 4c	4.ryy	fz
8r	8r	.	.
4D- 4AA- 4DD-	(>8b-L	4.f-X^< 4.d-	fz
.	8cc	.	.
8r	8b-J)	.	.
=153	=153	=153	=153
4AA- 4AAA-	(>4a-	4.e- 4.c	.
8r	8a-)	.	.
8D-L	(>4cc	4.f	.
8A-	.	.	.
8D-J	8cc)	.	.
=154	=154	=154	=154
8CL	(>4a-	4.e-	.
8A-	.	.	.
8CJ	8a-	.	.
8D-L	4cc	4.f	.
8A-	.	.	.
8DnJ	8cc	.	.
=155	=155	=155	=155
4G 4E-	8b-L	4.d-	.
.	8cc	.	.
8r	8b-J	.	.
4.E- 4.EE-	8anL	4.g 4.d-	.
.	8b-	.	.
.	8ee-J	.	.
!!LO:PB:g=original
=156	=156	=156	=156
!	!LO:TX:a:t=P:brak zakończenia łuku:problem	!	!
4A- 4E- 4AA-	4cc^< 4a- 4e- 4c)	4.ryy	fz
8r	8r	.	.
4.D- 4.AA- 4.DD-	(>8b-L	4.f-X^< 4.d-	fz
.	8cc	.	.
.	8b-J)	.	.
=157	=157	=157	=157
4AA- 4AAA-	(>4a-	4.e- 4.c	.
8r	8a-	.	.
8D-L	4cc	4.f	.
8A-	.	.	.
8D-J	8cc	.	.
=158	=158	=158	=158
8CL	4a-	4.e-	.
8A-	.	.	.
8CJ	8a-	.	.
8D-L	4cc	4.f	.
8A-	.	.	.
8DnJ	8cc	.	.
=159	=159	=159	=159
4G 4E-	8b-L	4.d-	.
.	8cc	.	.
8r	8b-J	.	.
4.E- 4.EE-	8gL	4.ryy	.
.	8f	.	.
.	8e-J)	.	.
=160	=160	=160	=160
4A- 4E- 4AA-	4cc^< 4a- 4e- 4c	4.ryy	fz
8r	8r	.	.
4D- 4AA- 4DD-	8b-L	4.f-X^< 4.d-	fz
.	8cc	.	.
8r	8b-J	.	.
!!LO:LB:g=original
=161	=161	=161	=161
4C 4CC	(>4a-	4.e- 4.c	.
!!!SIC@EN: probably there should be 4AA- 4AAA- instead of 4C 4CC (4AA- 4AAA- are in Troupenas edition)
8r	8a-)	.	.
8D-L	(>4cc	4.f	.
8A-	.	.	.
8D-J	8cc)	.	.
=162	=162	=162	=162
8CL	4a-	4.e-	.
8A-	.	.	.
8CJ	8a-	.	.
8D-L	4cc	4.f	.
8A-	.	.	.
8DnJ	8cc	.	.
*	*v	*v	*
=163	=163	=163
4G 4E-	8b- 8d-L	.
.	8ee-	.
8r	8e-J	.
4E- 4EE-	8ee-L/	.
.	8e-	.
8r	8ee-J	.
=164	=164	=164
!	!LO:TX:a:Bi:t=poco a poco più animato.:dur=15e:problem:text with extention lines	!
!	!	!LO:DY:rj
4.f-X^> 4.c-X 4.A- 4.E-	(>8cc-XL	ff
.	8dd-	.
.	8ee-J	.
4.f-^> 4.c- 4.A- 4.E-	8ff-XL	.
.	8gg-X	.
.	8aa-J	.
=165	=165	=165
4.f-^> 4.c- 4.A- 4.E-	8bb-L	.
.	8ccc-X	.
.	8ddd-J	.
4.f-^> 4.c- 4.A- 4.E-	8eee-L	.
.	8fff	.
!!!SIC@EN: 8fff is missing a flat accidental
.	8ddd-J	.
!!LO:LB:g=original
=166	=166	=166
4.f-X^> 4.c-X 4.A- 4.E-	8ccc-XL	.
.	8bb-	.
.	8aa-J	.
4.f-^> 4.c- 4.A- 4.E-	8gg-XL	.
.	8ff-X	.
.	8ee-J	.
=167	=167	=167
4.f-^> 4.c- 4.A- 4.E-	8dd-L	.
.	8cc-X	.
.	8a-J	.
4.e-^> 4.B- 4.G 4.E-	8b-L\	.
.	8ee-	.
.	8e-J	.
=168	=168	=168
4.E- 4.EE-	8f-XL	.
.	8g-X	.
.	8a-J	.
4.f-X^> 4.c-X 4.A- 4.E-	8b-L	.
.	8cc-X	.
.	8dd-J	.
=169	=169	=169
4.f-X^> 4.c-X 4.A- 4.E-	8ee-L	.
.	8ff-X	.
.	8gg-yJ	.
4.f-^> 4.c- 4.A- 4.E-	8aa-L	.
.	8bb-	.
.	8ccc-XJ	.
=170	=170	=170
4.f-X^> 4.c-X 4.A- 4.E-	8aa-L	.
.	8bb-	.
.	8aa-J	.
4.f-^> 4.c- 4.A- 4.E-	8gg-XL	.
.	8aa-	.
.	8gg-J	.
!!LO:LB:g=original
=171	=171	=171
4.f-X^> 4.c-X 4.A- 4.E-	8ff-XL	.
.	8gg-X	.
.	8ff-J	.
4.e-^> 4.B- 4.G 4.E-	4.ee-)	.
=172	=172	=172
4EE-^> 4EEE-	(>4.ff-X	.
8r	.	.
4.f-X^> 4.c-X 4.A- 4.E-	8gg-XL	.
.	8aa-	.
.	8bb-J	.
=173	=173	=173
4.f-X^> 4.c-X 4.A- 4.E-	8ccc-XL	.
.	8ddd-	.
.	8eee-J	.
*	*8va	*
4.f-^> 4.c- 4.A- 4.E-	8fff-XL	.
.	8ggg-X	.
.	8aaa-J	.
=174	=174	=174
4.f-X^> 4.c-X 4.A- 4.E-	8gggL	.
!!!SIC@EN: 8ggg is missing a flat accidental
.	8aaa-	.
.	8fff-XJ	.
4.f-^> 4.c- 4.A- 4.E-	8eee-L	.
.	8fff-X	.
.	8ddd-J	.
*	*X8va	*
=175	=175	=175
!	!LO:TX:a:Bi:t=loco.	!
4.f-X^> 4.c-X 4.A- 4.E-	8ccc-XL	.
.	8ddd-	.
.	8ccc-J	.
4.e-^> 4.B- 4.G 4.E-	8bb-L	.
.	8eee-	.
!	!LO:TX:b:t=P:w źródle łuk wygląda jakby kończył się dalej:problem	!
.	8ee-J)	.
!!LO:LB:g=original
=176	=176	=176
4.E- 4.EE-	(>8bb-XL	.
.	8aa-	.
.	8gg-XJ)	.
4.f- 4.c- 4.A- 4.E-	(>8aa-L	.
.	8gg-	.
.	8ff-XJ)	.
=177	=177	=177
4.f-X^> 4.c-X 4.A- 4.E-	(>8gg-XL	.
.	8ff-X	.
.	8ee-J)	.
4.f-^> 4.c- 4.A- 4.E-	(>8ff-L	.
.	8ee-	.
.	8dd-J)	.
=178	=178	=178
!LO:N:vis=4.	!	!
4e- 4d- 4G 4E-	(>8ccL/	.
.	8bn	.
8r	8b-XJ	.
4r	8anL	>
.	8a-X	.
8r	8gJ	.
=179	=179	=179
2.rF	8g-XL	.
.	8f	.
.	8enJ	.
.	8e-XL	.
.	8dn	.
!	!LO:TX:t=P:łuk wygląda, jakby kończył się w kolejnej linii:problem	!
.	8d-XJ)	]
!!LO:PB:g=original
=180	=180	=180
*	*^	*
!	!LO:TX:a:Bi:t=più animato.	!	!
!	!LO:N:vis=2.	!	!
8AA-L	8cL	2c	.
8A-	8d-	.	.
8E-J	8dnJ	.	.
8AA-L	8e-L	.	.
8A-	8g	4ryy	.
8E-J	8fJ	.	.
*	*v	*v	*
=181	=181	=181
8GGL	4e- 4B-	.
8G	.	.
8E-J	(<8e- 8B-	.
8FFL\	4a- 4d-)	.
8F	.	.
!	!LO:TX:b:t=P:cross-staff slur:problem	!
!	!LO:S:s=1:note:problem:note-level slur	!
!	!LO:S:s=2:note:problem:note-level slur	!
8D-J	N(<8a- (<8d-i	.
=182	=182	=182
*	*^	*
8EEnL	4d-N)	4G<)	.
8Eni	.	.	.
!	!	!LO:TX:b:t=P:cross-staff slur:problem	!
8D-J	8ryy	(<8G<	.
8EEL\	4g	[<4.c)	.
8E	.	.	.
8CJ	8g	.	.
=183	=183	=183	=183
8EE-XL\	4G-X<	4.c]\	.
8E-	.	.	.
!	!LO:TX:b:t=P:cross-staff slur:problem	!	!
8CJ	N(<8G-<	.	.
8EE-L\	4g-i	4.c-XN)	.
8E-	.	.	.
8C-XJ	8g-	.	.
=184	=184	=184	=184
8EE-L	(>2.f^<	8F<L	.
8E-	.	8G<	.
8FFJ	.	8An<J	.
8DD-L	.	8B-<L	.
8D-	.	8c<	.
8FFJ	.	8d-<J	.
!!LO:LB:g=original
=185	=185	=185	=185
8CCL\	4f	4e-	.
8C	.	.	.
8FFJ	&(<8f 8e-	2ryy	.
8BBB-L\	4dd- 4b-&)/	.	.
8BB-	.	.	.
8FFJ	8dd- 8b-/	.	.
*	*v	*v	*
=186	=186	=186
8EE-L\	4e- 4d-	.
8G	.	.
8E-J	8e- 8d-	.
8EE-L\	4cc 4a-/	.
8A-	.	.
8E-J	8cc/	.
=187	=187	=187
*	*^	*
8EE-L\	4b-	4.d-	.
8G	.	.	.
8E-J	8b-	.	.
8AA-L\	4a-	4.c	.
8A-	.	.	.
8E-J	8a-	.	.
=188	=188	=188	=188
!	!LO:N:vis=2	!	!
8AA-L	8cL	2c	.
8A-	8d-	.	.
8E-J	8dnJ	.	.
8AA-L	8e-L	.	.
8A-	8g	4ryy	.
8E-J	8fJ	.	.
*	*v	*v	*
=189	=189	=189
8GGL	4e- 4B-)	.
8G	.	.
8E-J	(<8e- 8B-	.
8FFL\	4a- 4d-)	.
8F	.	.
!	!LO:TX:b:t=P:cross-staff slur:problem	!
!	!LO:S:s=1:note:problem:note-level slur	!
8D-J	N(>8a- (<8d-	.
!!LO:LB:g=original
=190	=190	=190
*	*^	*
!	!LO:TX:t=P:zakończenie łuku pod nutą:problem	!	!
8EEnL	4d-N)	4G<)	.
8En	.	.	.
!	!	!LO:TX:b:t=P:cross-staff slur:problem	!
8D-J	8ryy	(<8G<	.
8EEL\	4g	[<4.c)	.
8E	.	.	.
8CJ	8g	.	.
=191	=191	=191	=191
8EE-XL	4G-X<	4.c]\	.
8E-	.	.	.
!	!LO:TX:b:t=P:cross-staff slur:problem	!	!
8CJ	N(<8G-<	.	.
8EE-L\	4g-X	4.c-XN)	.
8E-	.	.	.
8C-XJ	(<8g-	.	.
=192	=192	=192	=192
8EE-L	N(<[>2.f^>)	8F<L	.
8E-	.	8G<	.
8FFJ	.	8An<J	.
8DD-L	.	8B-<L	.
8D-	.	8c<	.
8FFJ	.	8d-<J	.
=193	=193	=193	=193
8CCL\	4f]	4e-N)	.
8C	.	.	.
8FFJ	(<8f 8e-	2ryy	.
8BBB-L\	4dd- 4b-)/	.	.
8BB-	.	.	.
8FFJ	(<8dd- 8b-/	.	.
*	*v	*v	*
!!LO:LB:g=original
=194	=194	=194
8EE-L\	4e- 4d-)	.
8G	.	.
8E-J	(<8e- 8d-	.
8EE-L\	4cc 4a-)/	.
8A-	.	.
8E-J	(>8cc/	.
=195	=195	=195
*	*^	*
8EE-L\	4b-)	4.d-	.
8G	.	.	.
8E-J	(>8b-	.	.
8AA-L	4a-)	4.c	.
8A-	.	.	.
8E-J	8a-	.	.
=196	=196	=196	=196
4.E- 4.EE-	(>[>2.ee-^>	4.ee- 4.d-	f
8f-X>L	.	8dd-L/	.
8c-X>	.	8a-	.
8d->J	.	8b-J	.
=197	=197	=197	=197
8e->L	2.ee-]	8cc-XL/	.
8B->	.	8g-X	.
8c-X>J	.	8a-J	.
8d->L	.	8b-L/	.
8A-	.	8f-X	.
8B-J	.	8g-J	.
*	*v	*v	*
!!LO:LB:g=original
=198	=198	=198
8c-XL	8a-L	.
8G-X	8e-	.
8A-J	8f-XJ	.
8B-L	8g-XL	.
8F-X	8d-	.
8G-J	8e-J	.
=199	=199	=199
8A-L	8f-XL	.
8E-	8c-X	.
8F-XJ	8d-J	.
4.G-X	[>4.e- [<4.c-	.
=200	=200	=200
*	*^	*
8C-XL	4.e-] 4.c-X]	4.ryy	.
8E-	.	.	.
8F-XJ	.	.	.
4G-X	8d-L	4.B-	.
.	8e-	.	.
8G-	8d-J	.	.
=201	=201	=201	=201
8AA-L\	8c-XL	4.A-	.
8C-	8d-	.	.
8D-J	8c-J	.	.
!	!	!LO:TX:b:t=P:note position:problem	!
4E-	8B-<L	4.G</	.
.	8c-<	.	.
8E-	8B-<J	.	.
=202	=202	=202	=202
8FF-XL	8A-<L	4.F-X<	.
8AA-	8B-<	.	.
8BB-J	8A-<J	.	.
!	!	!LO:TX:b:t=P:note position:problem	!
4C-X\	8G-X<L	4.E-</	.
.	8A-<	.	.
8C-	8G-<J)	.	.
!!LO:PB:g=original
=203	=203	=203	=203
8DD-L	8F-X<L	4.ryy	.
8FF-X	8G-<	.	.
8GG-XJ	8F-<J	.	.
!	!	!LO:TX:b:t=P:note position:problem	!
4.AA-	4.E-<	4.C-X</	.
=204	=204	=204	=204
4.EE- 4.EEE-	4.eee- 4.ee-	4.ryy	fz
*clefG2	*	*	*
!	!LO:TX:b:t=P:note position:problem	!	!
8ff-XL	(>4.eee-^<	8ddd-L	.
8cc-X	.	8aa-	.
8dd-J	.	8bb-J)	.
=205	=205	=205	=205
8ee-L	(>4.eee-	8ccc-X^<L	.
8b-	.	8gg-X	.
8cc-XJ	.	8aa-J)	.
8dd-L	(>4.eee-	8bb-^<L	.
8a-	.	8ff-X	.
8b-J	.	8gg-J)	.
=206	=206	=206	=206
8cc-L\	(>4.eee-	8aa-^<L	.
8g-X	.	8ee-	.
8a-J	.	8ff-XJ)	.
8b-L	(>4.eee-	8gg-X^<L	.
8f-X	.	8dd-	.
8g-XJ	.	8ee-J)	.
*	*v	*v	*
!!LO:LB:g=original
=207	=207	=207
8a-L\	(>8ff-X^<L	.
8e-	8cc-X	.
8f-XJ	8dd-J)	.
4.g-X\	(>4.ee-^< 4.cc-X	.
*clefF4	*	*
=208	=208	=208
*	*^	*
4r	4.b-	4.ryy	.
8D-	.	.	.
4f-X 4B--	8b--L	4.b--	.
.	8ee-	.	.
8D-	8dd-J	.	.
*	*v	*v	*
=209	=209	=209
4f-X 4B--	8b--L/	.
.	8cc-X	.
8D-	8b--J	.
4f- 4B-X	8a-L	.
.	8b-X	.
8D-	8a-J	.
=210	=210	=210
*	*^	*
4e- 4B-	8gL	4.ryy	.
.	8a-	.	.
8E-	8gJ	.	.
4e- 4G	8b-L	4d-	.
.	8cc	.	.
8E-	8b-J	8ryy	.
!!LO:LB:g=original
=211	=211	=211	=211
4.e- 4.A-	4.a-)	4.c	.
4.A- 4.AA-	4r	4.ryy	.
.	8r	.	.
=212	=212	=212	=212
4.E- 4.EE-	(>[2.ee-	4.e-^<	.
8f-XL	.	8dd-L/	.
8c-X	.	8a-	.
8d-J	.	8b-J	.
=213	=213	=213	=213
8e-L	2.ee-]	8cc-XL	.
8B-	.	8g-X	.
8c-XJ	.	8a-J	.
8d-L	.	8b-L/	.
8A-	.	8f-X	.
8B-J	.	8g-J	.
*	*v	*v	*
=214	=214	=214
8c-XL	8a-L	.
8G-X	8e-	.
8A-J	8f-XJ	.
8B-L	8g-XL	.
8F-X	8d-	.
8G-J	8e-J	.
=215	=215	=215
8A-L	8f-XL	.
8E-	8c-X	.
8F-XJ	8d-J	.
4.G-X	[>4.e- [<4.c-	.
!!LO:LB:g=original
=216	=216	=216
*	*^	*
8C-XL	4.e-] 4.c-X]	4.ryy	.
8E-	.	.	.
8F-XJ	.	.	.
4G-X	8d-L	4.B-	.
.	8e-	.	.
8G-	8d-J	.	.
=217	=217	=217	=217
8AA-L\	8c-XL	4.A-	.
8C-X	8d-	.	.
8D-J	8c-J	.	.
4E-	8B-L	4.G	.
.	8c-	.	.
8E-	8B-J	.	.
=218	=218	=218	=218
8FF-XL	8A-<L	4.F-X<	.
8AA-	8B-<	.	.
8BB-J	8A-<J	.	.
!	!	!LO:TX:b:t=P:note position:problem	!
4C-X\	8G-X<L	4.E-</	.
.	8A-<	.	.
8C-	8G-<J	.	.
=219	=219	=219	=219
8DD-L	8F-X<L	4.D-<\	.
8FF-X	8G-X<	.	.
8GG-XJ	8F-<J	.	.
!	!	!LO:TX:b:t=P:note position:problem	!
4.AA-	4.E-<)	4.C-X</	.
*	*v	*v	*
=220	=220	=220
4EE- 4EEE-	4.eee-^< 4.ee-	.
8EE-	.	.
4E-	(>8ddd-^<L 8bb- 8dd-	.
.	8ff	.
8EE-	8ggJ)	.
!!LO:LB:g=original
=221	=221	=221
4E-	(>8ccc-X^<L 8cc-X	.
.	8ee-	.
8EE-	8ff-XJ)	.
4E-	(>8bb-^<L 8gg-X 8b-	.
.	8dd-	.
8EE-	8ee-J)	.
=222	=222	=222
4E-	(>8aa-^<L 8ff-X 8a-	.
.	8cc-X	.
8EE-	8dd-J)	.
4E-	(>8gg-X^<L 8ee- 8g-X	.
.	8b-	.
8EE-	8cc-J)	.
=223	=223	=223
4E-	(>8ff-X^<L 8dd- 8f-X\	.
.	8a-	.
8EE-	8b-J)	.
4.E-	4.ee-^< 4.cc-X 4.e-\	.
=224	=224	=224
*	*^	*
4DD-	4.ee- 4.b--	4.f-X^<	.
8r	.	.	.
(>8D-L	(>8dd-L/	4.ryy	.
8F-X	8ee-	.	.
8B--J	8dd-J	.	.
*	*v	*v	*
=225	=225	=225
4f-X)	8b--L/	.
.	8cc-X	.
8r	8b--J	.
4r	8f-XL/	.
.	8ff-X	.
8r	8f-J	.
!!LO:PB:g=original
=226	=226	=226
2.rD	8d-L	.
.	8e-	.
.	8d-J	.
.	8B--<L	.
.	8b--	.
.	8B--<J	.
=227	=227	=227
2.D- 2.EE-	8A-<L	.
.	8B-X<	.
.	8A-<J	.
.	8G<L	.
.	8f-X	.
.	8e-J)	.
=228	=228	=228
*	*^	*
!	!LO:TX:a:Bi:t=sempre piu animato e cresc.:dur=13e:problem:text with extention lines	!	!
8AAA-\L	(>[>4.G-X<	2.C</	.
8AA-\	.	.	.
8EE-\J	.	.	.
8AAA-\L	8G-<L]	.	.
8AA-\	8F<	.	.
8EE-\J	8E-<J	.	.
=229	=229	=229	=229
8AAA-\L	4F<	2.D-</	.
8AA-\	.	.	.
8FF\J	8F<	.	.
8AAA-\L	8F<L	.	.
8AA-\	8G<	.	.
8FF\J	8A-<J	.	.
=230	=230	=230	=230
!	!	!LO:TX:b:t=P:note position:problem	!
8AAA-\L	4G<	2.F-X<\	.
8D-\	.	.	.
8FF-X\J	8G<	.	.
8AAA-\L	8G<L	.	.
8D-\	8A-<	.	.
8FF-\J	8B-<J	.	.
!!LO:LB:g=original
=231	=231	=231	=231
8AAA-\L	4c<	4.A-< 4.E-<\	.
8C\	.	.	.
8EE-\J	8c<	.	.
8AAA-\L	4c<	4.A-< 4.En<\	.
8C\	.	.	.
8EEn\J	8c<	.	.
=232	=232	=232	=232
8AAA-\L	4c<	4.A-< 4.F<\	.
8C\	.	.	.
8FF\J	8c<	.	.
8AAA-\L	4c<	4.A-< 4.En<\	.
8C\	.	.	.
8EEn\J	8c<	.	.
=233	=233	=233	=233
8AAA-\L	4c<	4.A-< 4.F<\	.
8C\	.	.	.
8FF\J	8c<	.	.
8AAA-\L	4c<	4.A-< 4.F-X<\	.
8C\	.	.	.
8EE-X\J	8c<	.	.
=234	=234	=234	=234
8AAA-L	8c-X<L	4.F-X<\	.
8C-X	8d-<	.	.
8FF-XJ	8c-<J	.	.
8GGGL\	4f-X	4F-</	<
8C-	.	.	.
8FF-J	8f-	8ryy	[
!!LO:LB:g=originaL
=235	=235	=235	=235
8AAA-L	8c-X<L	4.F-X<\	.
8C-X	8d-<	.	.
8FF-XJ	8c-<J	.	.
8FFF-XL\	4f-X	4.F-</	.
8C-	.	.	.
8FF-J	8f-)	.	.
=236	=236	=236	=236
8AAA-	(>[>4.e-	2.c	.
8r	.	.	.
8E-	.	.	.
8AA-L	8e-L]	.	.
8A-	8f	.	.
8E-J	8g-XJ	.	.
=237	=237	=237	=237
8AA-L	4f	2.d-	.
8A-	.	.	.
8FJ	8f	.	.
8AA-L	8fL	.	.
8A-	8g	.	.
8FJ	8a-J	.	.
=238	=238	=238	=238
8AA-L	4g	2.f-X	.
8d-	.	.	.
8F-XJ	8g	.	.
8AA-L	8gL	.	.
8d-	8a-	.	.
8F-J	8b-J	.	.
=239	=239	=239	=239
8AA-L	4cc	4.a- 4.e-	.
8c	.	.	.
8E-J	8cc	.	.
8AA-L	4cc	4.a- 4.en	.
8c	.	.	.
8EnJ	8cc	.	.
!!LO:LB:g=original
=240	=240	=240	=240
8AA-L	4cc	4.a- 4.f	.
8c	.	.	.
8FJ	8cc	.	.
8AA-L	4cc	4.a- 4.en	.
8c	.	.	.
8EnJ	8cc	.	.
=241	=241	=241	=241
8AA-L	4cc	4.a- 4.f	.
8c	.	.	.
8FJ	8cc	.	.
8AA-L	4cc	4.a- 4.f-X	.
8c	.	.	.
8F-XJ	8cc	.	.
=242	=242	=242	=242
!	!LO:TX:b:t=P:w źródle dopisany bemol ołówkiem do 8cc:problem	!	!
8AA-L	8ccL	4.f-X	.
8c-X	8dd-	.	.
8F-XJ	8ccJ	.	.
8GGL	4ff-i	4.f-	.
8c-	.	.	.
8F-XJ	8ff-	.	.
=243	=243	=243	=243
8AA-L	8cc-XL	4.f-X	.
8c-X	8dd-	.	.
8F-XJ	8cc-J	.	.
8FF-XL	4ff-X	4.f-	.
8c-	.	.	.
8F-J	8ff-	.	.
!!LO:LB:g=original
=244	=244	=244	=244
!	!LO:TX:a:t=P:brak zakończenia łuku w źródle:problem	!	!
8AA-L	4ee- 4cc 4e-)\	4.ryy	.
8c	.	.	.
8E-J	8r	.	.
8D-L	(>[>4.ff-X	8dd-L	.
8f-X	.	8cc-X	.
8B--J	.	8b--J	.
=245	=245	=245	=245
8D-L	4.ff-]	8dd-L	.
8f-X	.	8cc-X	.
8B--J	.	8b--J	.
8E-L	4.ee-	8gL	.
8d-	.	8b--	.
8GJ	.	8e-J	.
=246	=246	=246	=246
8AA-L	4.ee-	8ccL	.
8c	.	8b-	.
8E-J	.	8a-J	.
8D-L	4.ff	8dd-L	.
!!!SIC@EN: 4.ff is missing a flat accidental
8f-X	.	8cc-X	.
8B--J	.	8b--J	.
=247	=247	=247	=247
8D-L	4.ff	8dd-L	.
!!!SIC@EN: 4.ff is missing a flat accidental. In the Troupenas edition this note is connected with 4.ff- from the previous measure with a tie
8f-X	.	8cc-X	.
8B--J	.	8b--J	.
8E-L	4.ee-	8gL	.
8d-	.	8b--	.
8GJ	.	8e-J	.
!!LO:PB:g=original
=248	=248	=248	=248
8AA-L	4.ee-	8ccL	.
8c	.	8b-	.
8E-J	.	8a-J	.
8D-L	4.ff	8dd-L	.
!!!SIC@EN: 4.ff is missing a flat accidental
8f-X	.	8cc-X	.
8B--J	.	8b--J	.
=249	=249	=249	=249
8D-L	4.bb--	8dd-L	.
8f-X	.	8ff-X	.
8B--J	.	8b--J	.
8E-L	4.ee-	8gL	.
8d-	.	8b-X	.
8GJ	.	8e-J	.
=250	=250	=250	=250
8AA-L	4.ee-	8ccL	.
8c	.	8b-	.
8E-J	.	8a-J	.
8D-L	4.ff-X	8dd-L	.
8f-X	.	8cc-X	.
8B--J	.	8b--J	.
=251	=251	=251	=251
8D-L	4.bb--	8dd-L	.
8f-X	.	8ff-X	.
8B--J	.	8b--J	.
8E-L	4.ee-	8gL	.
8d-	.	8b-X	.
8GJ	.	8e-J	.
!!LO:LB:g=original
=252	=252	=252	=252
4c 4A-	(>4.ee-)	8ccL	.
.	.	8b-	.
(<8EE-	.	8a-J)	.
4D- 4DD-)	(>4.ff-X	8dd-L	.
!!!SIC@EN: probably there should be 4E- 4EE- instead of 4D- 4DD-. In Troupenas edition there is 4E- 4EE-
.	.	8cc-X	.
(<8DDn	.	8b--J)	.
=253	=253	=253	=253
4E- 4EE-)	(>4.ff-X	8dd-L	.
.	.	8cc-X	.
8DDn	.	8b--J)	.
4E- 4EE-	(>4.ffn	8ddnL	.
.	.	8ccn	.
8DD	.	8bnJ)	.
=254	=254	=254	=254
4E- 4EE-	(>4.ff	8ddnL	.
.	.	8ccn	.
8DDn	.	8bnJ)	.
4E- 4EE-	(>4.gg-X	8ee-L	.
.	.	8dd-X	.
8DD	.	8ccJ)	.
=255	=255	=255	=255
4E- 4EE-	4.gg-X	8ee-L	.
.	.	8dd-	.
8DDn	.	8ccJ	.
4E- 4EE-	4.ggn	8ff-XL	.
.	.	8ee-	.
8DD	.	8dd-J	.
*	*v	*v	*
!!LO:LB:g=original
=256	=256	=256
4E- 4EE-	8ggnL 8ff-X 8b-	.
.	8ee-	.
8DDn	8dd-J	.
4E- 4EE-	8aa-L 8ffn 8cc-X	.
.	8ee-	.
8DD	8ddnJ	.
=257	=257	=257
4E- 4EE-	8aanL 8gg-X 8cc	.
.	8ff	.
8DDn	8ee-J	.
4E- 4EE-	8bb-L 8ggn 8dd-	.
.	8gg-X	.
8DD	8ff-XJ	.
=258	=258	=258
4E- 4EE-	8bbnL 8aa- 8ddn	.
.	8gg-X	.
8DDn	8ffJ	.
4E- 4EE-	8cccL 8aan 8ee-	.
.	8ggn	.
8DD	8ff#XJ	.
=259	=259	=259
4E- 4EE-	8ddd-L 8bb- 8ff-X	.
.	8aa-	.
8DDn	8ggJ	.
4E- 4EE-	8eee-L 8ddd- 8gg	.
.	8bb-	.
8r	8ee-J	.
!!LO:LB:g=original
=260	=260	=260
*^	*	*
4AA-	4.AAA-	(>4ccc	fz
8AA-	.	8r	.
4A-	4.ryy	8eee-L 8gg-X	fff
.	.	8fff	.
(<8AAA-	.	8eee-J	.
*v	*v	*	*
=261	=261	=261
4AA-)	8aa-^<L 8ff	.
.	8bb-	.
(<8AA-	8aa-J	.
4A-)	8ddd-^<L 8ff-X	.
.	8eee-	.
(<8AAA-	8ddd-J	.
=262	=262	=262
4AA-)	8ccc^<L 8ee-	.
.	8ddd-	.
8AA-	8cccJ	.
4A-	8eee-^<L 8gg-X	.
.	8fff	.
(<8AAA-	8eee-J	.
=263	=263	=263
4AA-)	8aa-^<L 8ff	.
.	8bb-	.
(<8AA-	8aa-J	.
4A-)	8ddd-L 8ff-X	.
.	8eee-	.
(<8AA-	8ddd-J	.
=264	=264	=264
4A-)	8bb-^<L 8ee-	.
!!!SIC@EN: there should be 8ccc instead og 8bb-
.	8ddd-	.
(>8A-	8cccJ	.
4a-)	8eee-^<L 8gg-X	.
.	8fff	.
(<8AA-	8eee-J	.
!!LO:LB:g=original
=265	=265	=265
!LO:TX:t=P:zakończenie łuku nad nutą:problem	!	!
4A-)	8aa-^<L 8ff	.
.	8bb-	.
(>8A-	8aa-J	.
4a-)	8ddd-^<L 8ff-X	.
.	8eee-	.
(<8AA-	8ddd-J	.
=266	=266	=266
4A-)	8ccc^<L 8ee-	.
.	8ddd-	.
(>8A-	8cccJ	.
4a-)	8eee-^<L 8gg-X	.
.	8fff	.
(<8AA-	8eee-J	.
=267	=267	=267
4A-)	8aa-^<L 8ff	.
.	8bb-	.
(>8A-	8aa-J	.
4a-)	8ddd-^<L 8ff-X	.
.	8eee-	.
[<8AA-	8ddd-J	.
=268	=268	=268
4A- 4AA-]	4aaa-)	fz
8r	8r	.
4r	4r	.
8r	8r	.
=269	=269	=269
4r	4r	.
8r	8r	.
4.EE- 4.EEE-	4.ee- 4.b- 4.g 4.e- 4.d-\	ff
=270	=270	=270
2.AA-; 2.AAA-	2.cc; 2.a- 2.e- 2.c	.
==	==	==
*-	*-	*-
!!title: @{OTL}; @{OPS} @{ONM} publisher: @{PPR}
!!!RDF**kern: > = above
!!!RDF**kern: < = below
!!!RDF**dynam: > = "dim.", fontstyle= "bold-italic"
!!!RDF**dynam: < = "cresc.", fontstyle= "bold-italic"
!!!RDF**kern: i = editorial accidental, bracket
!!!RDF**kern: N = linked
!!!ENC: Wojciech Jakubiak-Danek
!!!END: 2019-10-03
!!!EED: Zofia Niedbalska
!!!EST: 2020-05-08
!!!rism-genre: Tarantella
!!!rism-key: A-flat major
!!!rism-opus: op.  43
!!!rism-title: Tarantella in A-flat major op.  43
!!!rism-permalink: https://opac.rism.info/search?id=1001074073&View=rism
